X: 60
T: R\"attvikarnas G\aangl\aat
O: Dalarna
R: march
S: http://www.folksweden.com/files/R_ttvikarnas_G_ngl_t.pdf
Z: 2021 John Chambers <jc:trillian.mit.edu>
M: 2/4
L: 1/16
K: D
A2 "^A"|:\
F2AF G2BG | A2d2 F4 | A2BA G2A,C | E2D2 [1,3 FED2 :|2 D4 :|4 D2 |] "^B"|: FG | ABAF A2d2 |
f3e d2c2 | B3A G2F2 | G6 cd | efed cdcB | ABAF G2BG | F2D2 DCDE | D6 FG || ABAF A2d2 | f3e d2c2 |
B2g2 gfga | b6 b2 | abaf gage | fgfd efed | c2A2 Acec | d6 "^C":: A2 | d3f a2g2 | f6 ed |
cdef g2f2 | e6 d2 | cdef gagf | efed cdcB |1,3 A2cA G2BG | F6 :|2,4 A2a2 Acec | d6 :|
